src/img/icons/question-box.svg

<svg fill="none" height="19" viewBox="0 0 18 19" width="18" xmlns="http://www.w3.org/2000/svg"><path d="m15.25.75h-12.5c-1.40625 0-2.5 1.13281-2.5 2.5v12.5c0 1.4062 1.09375 2.5 2.5 2.5h12.5c1.3672 0 2.5-1.0938 2.5-2.5v-12.5c0-1.36719-1.1328-2.5-2.5-2.5zm-6.25 14.375c-.70312 0-1.25-.5469-1.25-1.25s.50781-1.25 1.25-1.25c.66406 0 1.25.5469 1.25 1.25s-.58594 1.25-1.25 1.25zm2.6953-5.54688-1.7578 1.09378v.0781c0 .5078-.42969.9375-.9375.9375s-.9375-.4297-.9375-.9375v-.625c0-.3125.15625-.625.46875-.82031l2.22655-1.32813c.2734-.15625.4297-.42968.4297-.74218 0-.46876-.3906-.85938-.8594-.85938h-2.03122c-.50782 0-.85938.39062-.85938.85938 0 .50781-.42969.9375-.9375.9375s-.9375-.42969-.9375-.9375c0-1.52344 1.21094-2.73438 2.69531-2.73438h2.03129c1.5625 0 2.7734 1.21094 2.7734 2.73438 0 .9375-.5078 1.83593-1.3672 2.34374z" fill="#fff"/></svg>

<svg width="18" height="19" viewBox="0 0 18 19" fill="none" xmlns="http://www.w3.org/2000/svg">
<path d="M15.25 0.75H2.75C1.34375 0.75 0.25 1.88281 0.25 3.25V15.75C0.25 17.1562 1.34375 18.25 2.75 18.25H15.25C16.6172 18.25 17.75 17.1562 17.75 15.75V3.25C17.75 1.88281 16.6172 0.75 15.25 0.75ZM9 15.125C8.29688 15.125 7.75 14.5781 7.75 13.875C7.75 13.1719 8.25781 12.625 9 12.625C9.66406 12.625 10.25 13.1719 10.25 13.875C10.25 14.5781 9.66406 15.125 9 15.125ZM11.6953 9.57812L9.9375 10.6719V10.75C9.9375 11.2578 9.50781 11.6875 9 11.6875C8.49219 11.6875 8.0625 11.2578 8.0625 10.75V10.125C8.0625 9.8125 8.21875 9.5 8.53125 9.30469L10.7578 7.97656C11.0312 7.82031 11.1875 7.54688 11.1875 7.23438C11.1875 6.76562 10.7969 6.375 10.3281 6.375H8.29688C7.78906 6.375 7.4375 6.76562 7.4375 7.23438C7.4375 7.74219 7.00781 8.17188 6.5 8.17188C5.99219 8.17188 5.5625 7.74219 5.5625 7.23438C5.5625 5.71094 6.77344 4.5 8.25781 4.5H10.2891C11.8516 4.5 13.0625 5.71094 13.0625 7.23438C13.0625 8.17188 12.5547 9.07031 11.6953 9.57812Z" fill="white"/>
</svg>
